X: 221
T: MISS BARTLET
C: J. MACGLASHAN
R: Reel
B: Glen Collection p.22 #1
Z: 2011 John Chambers <jc:trillian.mit.edu>
M: C
L: 1/8
V: 1 middle=B clef=treble
V: 2 middle=d clef=bass
%%score {1 | 2}
K: F
%
V: 1
B |\
AFEF (DF)(CF) | AFEF BGGB | AFEF (D/E/F) CB | (A/B/c) (GB) AFF :|
~B |\
Acfa (ba)(gf) | ecfA BGGB | Acfa bagb | afce fFFB |
Acfa (ba)(gf) | {f}ecfA BGGB | (A/B/c) (GB) AFEF | DdcB AFF |]
%
V: 2
z |\
F2[a2f2] [b2f2][a2f2] | F2[f2A2] [e2c2][e2c2] |\
F2[a2f2] [b2f2][g2e2] | [a2f2c2][g2e2c2] f2F :|
z |\
[f2F2][c'2a2] c2[g2e2] | [b2c2][a2f2] [g2e2c2][g2e2c2] |\
f2[c'2a2] c2[g2e2] | [a2f2][b2g2c2] [a2f2]f2 |
[f2F2][c'2a2] c2[g2e2] | [b2c2][a2f2] [g2e2c2][g2e2c2] |\
[f2c2][e2c2] [f2c2][f2A2] | [f2B2][g2e2c2] [f2F2][fF] |]
